ui/StatusQ/src/assets/img/icons/profile/notifications.svg

<svg fill="none" height="24" viewBox="0 0 24 24" width="24" xmlns="http://www.w3.org/2000/svg"><path clip-rule="evenodd" d="m15.2815 19c-.3363 0-.5779.3279-.5466.6628.01.1075.0155.2199.0155.3372 0 1.3889-1.2063 2.75-2.75 2.75-1.5436 0-2.74999-1.3611-2.74999-2.75 0-.1173.0055-.2297.01555-.3372.03129-.3349-.21032-.6628-.54662-.6628h-3.19783c-1.73628 0-2.64783-2.0606-1.47988-3.3453l1.17686-1.2946c.51072-.5618.851-1.2573.98109-2.0053l1.11547-6.41395c.39616-2.27792 2.37325-3.94085 4.68535-3.94085s4.2892 1.66293 4.6854 3.94085l1.1154 6.41395c.1301.748.4704 1.4435.9811 2.0053l1.1769 1.2946c1.1679 1.2847.2564 3.3453-1.4799 3.3453zm-4.2488.0283-.0009.001.0077-.0079.0024-.0026c.0013-.0013.0019-.002.002-.0021.0004-.0004 0 0 0 0l-.002.0021c.011-.0115.0266-.0188.0426-.0188h1.8319c.0159 0 .031.0068.042.0183.0028.0034.01.0119.0201.0255.023.0306.0609.0862.1011.1666.0791.1583.1708.4192.1708.7896 0 .6111-.5845 1.25-1.25 1.25s-1.25-.6389-1.25-1.25c0-.3704.0917-.6313.1708-.7896.0402-.0804.0781-.136.1011-.1666.0102-.0136.0168-.0216.0196-.025l-.0024.0026-.0018.0019-.0032.0032zm-5.88116-2.3646 1.17686-1.2946c.70224-.7724 1.17013-1.7288 1.349-2.7573l1.11546-6.41394c.27121-1.55944 1.62474-2.69786 3.20754-2.69786 1.5829 0 2.9364 1.13842 3.2076 2.69786l1.1154 6.41394c.1789 1.0285.6468 1.9849 1.349 2.7573l1.1769 1.2946c.292.3212.0641.8363-.37.8363h-12.95779c-.43407 0-.66195-.5151-.36997-.8363z" fill="#4360df" fill-rule="evenodd"/></svg>

<svg width="24" height="24" viewBox="0 0 24 24" fill="none" xmlns="http://www.w3.org/2000/svg">
<path fill-rule="evenodd" clip-rule="evenodd" d="M15.2815 19C14.9452 19 14.7036 19.3279 14.7349 19.6628C14.7449 19.7703 14.7504 19.8827 14.7504 20C14.7504 21.3889 13.5441 22.75 12.0004 22.75C10.4568 22.75 9.25041 21.3889 9.25041 20C9.25041 19.8827 9.25591 19.7703 9.26596 19.6628C9.29725 19.3279 9.05564 19 8.71934 19H5.52151C3.78523 19 2.87368 16.9394 4.04163 15.6547L5.21849 14.3601C5.72921 13.7983 6.06949 13.1028 6.19958 12.3548L7.31505 5.94085C7.71121 3.66293 9.6883 2 12.0004 2C14.3125 2 16.2896 3.66293 16.6858 5.94085L17.8012 12.3548C17.9313 13.1028 18.2716 13.7983 18.7823 14.3601L19.9592 15.6547C21.1271 16.9394 20.2156 19 18.4793 19H15.2815ZM11.0327 19.0283L11.0318 19.0293L11.0395 19.0214L11.0419 19.0188C11.0432 19.0175 11.0438 19.0168 11.0439 19.0167C11.0443 19.0163 11.0439 19.0167 11.0439 19.0167L11.0419 19.0188C11.0529 19.0073 11.0685 19 11.0845 19H12.9164C12.9323 19 12.9474 19.0068 12.9584 19.0183C12.9612 19.0217 12.9684 19.0302 12.9785 19.0438C13.0015 19.0744 13.0394 19.13 13.0796 19.2104C13.1587 19.3687 13.2504 19.6296 13.2504 20C13.2504 20.6111 12.6659 21.25 12.0004 21.25C11.3349 21.25 10.7504 20.6111 10.7504 20C10.7504 19.6296 10.8421 19.3687 10.9212 19.2104C10.9614 19.13 10.9993 19.0744 11.0223 19.0438C11.0325 19.0302 11.0391 19.0222 11.0419 19.0188L11.0395 19.0214L11.0377 19.0233L11.0345 19.0265L11.0327 19.0283ZM5.15154 16.6637L6.3284 15.3691C7.03064 14.5967 7.49853 13.6403 7.6774 12.6118L8.79286 6.19786C9.06407 4.63842 10.4176 3.5 12.0004 3.5C13.5833 3.5 14.9368 4.63842 15.208 6.19786L16.3234 12.6118C16.5023 13.6403 16.9702 14.5967 17.6724 15.3691L18.8493 16.6637C19.1413 16.9849 18.9134 17.5 18.4793 17.5H5.52151C5.08744 17.5 4.85956 16.9849 5.15154 16.6637Z" fill="#4360DF"/>
</svg>
